icons/eta-lang.svg

<?xml version="1.0" encoding="UTF-8"?>
<svg width="256px" height="282px" viewBox="0 0 256 282" version="1.1" xmlns="http://www.w3.org/2000/svg" xmlns:xlink="http://www.w3.org/1999/xlink" preserveAspectRatio="xMidYMid">
      <g>
          <path d="M105.325714,6.26358674 L22.6742857,53.8064439 C8.77714286,61.8521582 0,76.8464439 0,92.9378725 L0,188.389301 C0,204.48073 8.77714286,219.475015 22.6742857,227.52073 L105.325714,275.063587 C119.222857,283.109301 136.777143,283.109301 150.674286,275.063587 L233.325714,227.52073 C247.222857,219.475015 256,204.48073 256,188.389301 L256,93.3035867 C256,77.2121582 247.222857,62.2178725 233.325714,54.1721582 L150.674286,6.62930103 C136.777143,-2.14784183 119.222857,-2.14784183 105.325714,6.26358674 L105.325714,6.26358674 Z" fill="#32BEBE" fill-rule="nonzero"></path>
          <path d="M155.88885,70.3762134 C156.433147,70.040209 156.915236,70.3611356 157.505665,70.6605939 C188.351563,86.3159998 210.108468,114.044696 209.577551,149.032683 C209.513646,153.239078 209.024168,157.611828 207.790687,161.520662 C207.433514,162.652592 207.137651,164.232561 206.431692,164.82299 C205.734321,164.275298 205.784946,162.964232 205.665223,162.092119 C200.48776,124.442957 162.309279,126.977718 153.011694,162.890042 C152.388514,162.859187 152.371738,162.574707 151.947764,162.23371 C137.001711,149.097787 93.0320732,113.272535 108.299651,93.3329488 C115.573022,84.7823622 123.215049,87.2492232 125.3496,87.7083459 C124.550179,86.6191526 121.37067,82.8706822 121.286693,81.8633681 C131.466976,84.0903829 138.547032,86.6901479 144.524814,95.7969141 C147.056978,99.654224 148.592014,106.704324 146.022704,111.208779 L145.805025,111.041526 C145.786453,111.024251 145.76149,111.000187 145.743117,110.981515 C144.729512,109.321663 142.702003,106.319991 141.583752,104.586947 C139.050989,100.66044 139.156932,102.82295 136.510935,106.176503 C136.158755,106.653499 133.551102,110.132167 133.147497,110.297424 C132.97625,106.337565 132.653026,103.438042 130.86077,100.514954 C126.91539,94.0802464 115.600881,94.0853389 115.272765,102.812166 C116.468102,133.332044 179.851102,133.585071 163.141951,85.2084336 C161.547902,80.5924429 160.292854,78.0062579 157.845863,73.8785469 C157.350594,73.0433789 155.889849,71.2029937 155.88885,70.3762134 Z M46.4129433,157.652668 L46.4129433,157.652668 L46.7179934,148.952202 C48.0951618,114.11619 59.7784273,81.1853683 97.0738111,71.2008968 C97.9085797,70.9775263 99.740677,70.2941344 100.584732,70.3653294 C99.8049822,71.7766475 98.1200677,73.7462421 97.1015701,75.3728426 C60.8373652,133.278124 170.004927,150.861685 149.549701,197.001123 C135.322389,222.591174 107.181401,206.29721 108.287669,199.030729 L123.008354,201.260639 C123.703229,202.178186 121.111053,203.739782 121.272814,204.539003 C121.427885,205.305273 126.432702,209.030078 131.349449,206.065452 C152.439339,193.34901 139.087934,155.943389 100.923832,161.109468 C100.690476,160.765775 100.605302,160.144092 100.527017,159.740188 C95.0741608,131.61328 64.23715,127.109723 48.8182951,153.693907 C48.4048051,154.406856 46.9117076,157.417714 46.4129433,157.652668 Z" fill="#FFFFFF"></path>
      </g>
</svg>

<svg xmlns="http://www.w3.org/2000/svg" viewBox="0 0 256 281.098">
  <path fill="#32bebe" d="M105.326 6.264 22.674 53.806C8.777 61.852 0 76.846 0 92.938v95.451c0 16.092 8.777 31.086 22.674 39.132l82.652 47.543c13.897 8.045 31.451 8.045 45.348 0l82.652-47.543C247.223 219.475 256 204.48 256 188.389V93.304c0-16.092-8.777-31.086-22.674-39.132L150.674 6.63c-13.897-8.777-31.451-8.777-45.348-.365z"/>
  <path fill="#fff" d="M155.889 70.376c.544-.336 1.026-.015 1.617.285 30.846 15.655 52.602 43.384 52.072 78.372-.064 4.206-.554 8.579-1.787 12.488-.357 1.132-.653 2.712-1.36 3.302-.697-.548-.646-1.859-.766-2.73-5.177-37.65-43.356-35.115-52.653.797-.623-.03-.64-.315-1.064-.656-14.946-13.136-58.916-48.961-43.648-68.901 7.273-8.55 14.915-6.084 17.05-5.625-.8-1.089-3.98-4.837-4.063-5.845 10.18 2.227 17.26 4.827 23.238 13.934 2.532 3.857 4.067 10.907 1.498 15.412l-.218-.167a2.165 2.165 0 0 1-.062-.06c-1.013-1.66-3.041-4.662-4.16-6.395-2.532-3.927-2.426-1.764-5.072 1.59-.352.477-2.96 3.955-3.364 4.12-.17-3.96-.494-6.859-2.286-9.782-3.946-6.435-15.26-6.43-15.588 2.297 1.195 30.52 64.578 30.773 47.869-17.604-1.594-4.616-2.85-7.202-5.296-11.33-.495-.835-1.956-2.675-1.957-3.502zM46.413 157.653l.305-8.7c1.377-34.837 13.06-67.768 50.356-77.752.835-.223 2.667-.907 3.51-.836-.779 1.412-2.464 3.381-3.482 5.008C60.837 133.278 170.005 150.862 149.55 197c-14.228 25.59-42.369 9.296-41.262 2.03l14.72 2.23c.695.917-1.897 2.479-1.735 3.278.155.766 5.16 4.491 10.076 1.526 21.09-12.716 7.739-50.122-30.425-44.956-.234-.343-.319-.965-.397-1.369-5.453-28.127-36.29-32.63-51.709-6.046-.413.713-1.906 3.724-2.405 3.959z"/>
</svg>
